X:1
T:Title
%%score { ( 1 3 4 ) | ( 2 5 ) }
L:1/8
M:4/4
K:D
V:1 treble nm="Grand Piano"
V:3 treble 
V:4 treble 
V:2 bass 
V:5 bass 
V:1
 z4 z2[Q:1/4=108] DE | F6[K:bass][K:treble] z2 | B6[K:bass][K:treble] z2 | c6 z2 | d6 z2 | G6 z2 | %6
 D6[K:bass] z2 | C6[K:treble] z2 | B,6 z2 |] %9
V:2
 z8 | B,,2 D,2 D,2 [D,F,]2 | B,,2 D,2 D,2 [D,F,]2 | B,,2 E,2 E,2 [E,G,]2 | %4
 B,,2 D,2 z[K:treble] dcB | B,,2 E,2 E,2 [E,G,]2 | B,,2 D,2 D,2 [D,F,]2 | ^A,,2 E,2 E,2 z2 | %8
 [B,,D,F,]6 z2 |] %9
V:3
 x8 | z2[K:bass] F,2 z[K:treble] FGF | z2[K:bass] F,2 z[K:treble] FGF | z2 G,2 z FGF | x8 | %5
 z2 G,2 z GFE | z2[K:bass] F,2 z DCB, | z2 F,2 z[K:treble] EDC | x8 |] %9
V:4
 x8 | z4[K:bass] F,2[K:treble] z2 | z4[K:bass] F,2[K:treble] z2 | z4 G,2 z2 | x8 | z4 G,2 z2 | %6
 z4[K:bass] F,2 z2 | z4 F,2[K:treble] z2 | x8 |] %9
V:5
 x8 | x8 | x8 | x8 | z4 F,2[K:treble] z2 | x8 | x8 | x8 | x8 |] %9

